X:1
T:Khvalitye imya Gospodie
T:Сергeй Рахманинов, 1910
T:Attributed to John Chrysostom, c. 349-407 AD
T:Хвалите Господа с небес
T:Литургиа Святого Иоанна Златоуста , Op. 31, No. 16
T:Public Domain
T:Public Domain
T:Public Domain
T:Public Domain
T:Public Domain
T:Public Domain
T:Public Domain
C:Sergei Rakhmanninov
Z:Public Domain
%%score [ ( 1 2 ) ( 3 4 ) ( 5 6 ) ( 7 8 ) ]
L:1/8
Q:1/4=90
M:3/4
K:F
V:1 treble nm="Сопрано" snm="С"
V:2 treble 
V:3 treble nm="Альт" snm="А"
V:4 treble 
V:5 treble-8 nm="Тенор" snm="Т"
V:6 treble-8 
V:7 bass nm="Бас" snm="Б"
V:8 bass 
V:1
"^Начало медленно и тихо, постепенно ускоряя и увеличивая звучность\nStart slowly and quietly, gradually accelerating and getting louder"!pp!"^Khva-li     –  tye  Go-spo-da s ne–bes,                             Khva–  li       –   tye         Go-spo-da, Khva-li     –  tye""^Хва–ли   –   те   Го-спо-да с не–бес,                             Хва –  ли    –    те          Го-спо-да, Хва–ли    –   те" [Ac]2 | %1
!>(! ((!tenuto![Ac]3 [GB])) [FA]2!>)! |!>(! !tenuto![Ac]3 [GB] [FA][Ac]!>)! | %3
!p! (!tenuto![Ac]3 [GB]!>(! [FA]2!>)! |[Q:1/4=95] !tenuto![Ac]3 [GB]) [FA]2 | %5
!>(! ((!tenuto![Ac]3 [GB])) [GB][FA]!>)! |!mp! !tenuto![Ac]3 [GB] [GB][FA] | %7
[Q:1/4=100] ((!tenuto![Ac]3 [GB])) [GB][FA] | %8
"^Го   –   спо-да, Хва–ли     –     те               Е        –      го             в выш    –   них,              Го      –       спо     –     да""^Go   –   spo-da, Khva–li      –   tye              Ye       –       vo            v vuish   –   nikh,             Go      –       spo     –      da" [Ac]3 [GB] [GB][FA] | %9
 !>![Ac][FA] !tenuto![FA][GB] !tenuto![GB][Ac] | %10
[Q:1/4=105]!mf! !>![Ac][FA] !tenuto![FA][GB] !tenuto![GB][Ac] | !>![Ac][GB] [FA][GB] [GB][Ac] | %12
"^в выш  –  них,         Хва     –     ли          –           те   Е  –  го,                     Хва   –   ли        –         те          Го   –  спо – да""^v vuish  – nikh,        Khva     –     li              –       tye, Ye – vo,                    Khva  –    li           –       tye         Go   –  spo  –da" [Ac][GB] [FA][GB] [GB][Ac] | %13
"^Уставовиться в темп, но звук все усиливать\nStaying in tempo, but strengthening"!f![Q:1/4=95] ((!>![Ac]3 [GB])) [GB][FA] | %14
 ((!>![Ac]3 [GB])) [GB][FA] | !>![Ac]!<(![GB][FA][GB] [GB][Ac]!<)! | %16
 !>![Ac][GB]!<(! [FA][GB] [GB][Ac]!<)! | %17
!ff!"^Замедляя и затихая\nSlowing and calming""^Го  –   спо –  да           в выш–них,     Хва      –     ли   –  те         Е        –       го,                  Хва  –   ли  –  те          Е     –""^Go  –   spo  –  da          v vuish–nikh,  Khva     –      li     –  tye      Ye        –       vo,                Khva –    li    – tye        Ye    –""^в выш        –      них,""^v vuish       –      nikh," !>!c4[Q:1/4=85] c2 | %18
!f!"^в выш        –      них,""^v vuish       –      nikh," c4[Q:1/4=75] c2 | %19
"^в выш                 –                них,"!mf!"^v vuish                –                nikh," !tenuto!c6 | %20
[Q:1/4=65]!>(! c4!p![Q:1/4=55] c2!>)! | %21
"^Значетельно медленнее\nMuch slower" de!<(! [df]2 [df]2!<)! | %22
!mf!"^–го                       в выш     –    них.                           Ал–ли –лу  –  иа.    Ал–ли – лу  –  иа.    Ал–ли – лу  –  иа.    Хва –""^–vo                      v vuish    –    nikh,                           Al – li –  lu   –   ia.     Al – li  –   lu   –  ia.      Al – li –   lu   –   ia.   Khva –" (!tenuto!f2!>(! ed e2)!>)! | %23
!>(! !tenuto!d4 d2-!>)! | d4!pp!"^Оживленнее\nAnimated"[Q:1/4=85] [Ac][Ac] | [Gd]2 [Gd]2 [Gd][Ad] | %26
 !tenuto!dc d2 dd | !tenuto!d2 d2!p![Q:1/4=55] B2 | %28
"^Опять медленнее\nSlowly again""^–ли – те       Е      –     го                          в выш    –   них,                            Ал–ли – лу  –  иа.    Ал–ли– лу  –  иа.   Ал–ли–""^– li  – tye     Ye     –     vo                          v vuish   –   nikh,                            Al – li  – lu    –   ia.     Al – li  – lu   –   ia.    Al – li  –" Bc!<(! d2 d2!<)! | %29
 (!tenuto!d2!>(! cB c2)!>)! | B4 B2- | %31
!>(! B2 A2!pp!"^Опять оживленнее\nAnimated again"[Q:1/4=85] AA!>)! | A2 A2 Ad | !tenuto!AG A2 Ad | %34
"^–лу    –    иа.         Ал–ли  – лу    –        –       –    иа.             Ал         –       –      ли    –       лу       –        –       –         иа.""^–lu      –     ia.          Al – li    – lu     –        –       –     ia.              Al          –       –       li      –        lu       –        –       –          ia." A2 A2!<(! [FA][FA]!<)! | %35
"^В том же темп не ускоряя\nThe same tempo, not accelerating"!f![Q:1/4=75] !tenuto![Ac][GB][FA][GB] [GB][Ac] | %36
!mf! !tenuto![Ac][GB][FA][GB] [GB][Ac] | %37
"^Ослабляя звучность и двужение \nдо конца – Slower and quieter to end"[Q:1/4=65] ((!tenuto![Ac]3 [GB])) [GB][FA] | %38
!mp!"^Ал          –            ли    –   лу      –        иа.           Ал  – ли   –  лу       –      иа.            Ал  – ли     –    лу    –   иа.          Ал –ли –""^Al            –             li     –    lu       –         ia.            Al   –  li    –   lu        –       ia.             Al  –   li       –     lu     –   ia.            Al –  li   –" ((!tenuto![Ac]3 [GB])) [GB][FA] | %39
[Q:1/4=55] [Ac]4 [Ac]2- | [Ac]2!p! [FA][GB] [GB][Ac] | [Ac]4[Q:1/4=50] [Ac]2- | %42
 [Ac]2 [FA][GB] [GB][Ac] |[Q:1/4=45]!pp! ((!tenuto![Ac]2!>(! F2)) ((!tenuto![Ac]2!>)! | %44
 F2)) !tenuto![Ac]2 F2 | %45
[Q:1/4=40]"^– лу           –             иа.""^–  lu            –              ia." [Ac]4- [Ac]F | %46
 !fermata!F6 |] %47
V:2
 x2 | x6 | x6 | x6 | x6 | x6 | x6 | x6 | x6 | x6 | x6 | x6 | x6 | x6 | x6 | x6 | x6 | BA AG GF | %18
 BA AG GF | BA AG G!mp!F | BAAG GF | d2 x4 | (c3 d c2) | d4 d2- | d4 x2 | x6 | GA G2 GA | %27
 G2 G2 B2 | B2 B2 B2 | A3 B A2 | B4 B2- | B2 x4 | x6 | x6 | x6 | x6 | x6 | x6 | x6 | x6 | x6 | x6 | %42
 x6 | x6 | x6 | x6 | x6 |] %47
V:3
 z2 | z6 | z6 | z6 | %4
 z2 z2 z!p!"^Хва–ли-те          Е   –  го,              Хва–ли-те          Е  –""^Khva-li–tye         Ye  –  vo,            Khva–li–tye        Ye –" F | %5
 !tenuto!F2 !tenuto!C3 F | (!tenuto!F2 E3) F |!mp! !tenuto!F2 !tenuto!D3 F | %8
"^– го,                      Хва– ли     –     те,   Хва–ли– те      Го – спо –да с не –бес,    Хва – ли – те      Е  –  го в выш–них,""^– vo,                     Khva–li        –   tye,   Khva–li–tye      Go –spo –da  s  ne–bes,   Khva– li   – tye    Ye –  vo v vuish–nikh," (!tenuto!F2 C3) F | %9
!mf! !>!F2 CC CC | !>!FC CC CC | !>!FC CC CC | %12
"^Го–спо–да   Хва–ли– те  в выш – них,           Хва – ли  –  те                 Е  –  го,""^Go–spo–da  Khva– li –tye, v vuish–nikh,        Khva –  li    –  tye              Ye –  vo," !>!FC CC CC | %13
!f! !>!F2 C3 C | !>!F2 C3 C |!<(! (!>!F3 CDE!<)! | FG A!<(!C DE)!<)! |!ff! !>!F2 !>!F2 !>!GF | %18
!f! F2 F2 GF |!mf! F2 F2 G!mp!F |!>(! F4!p! C2!>)! | FG!<(! A2 GA!<)! | %22
!mf! (!tenuto!G2!>(! EF G2)!>)! | (!tenuto!G2!>(! FG) A2-!>)! | A4!pp! AA | %25
 !tenuto![GB][DA] [DA][GB] [GB][Ac] | [GB][DA] [DA][GB] [GB][Ac] | [GB][DA] [DA][GB]!p! G2 | %28
"^–ли – те       Е      –     го                          в выш    –   них,                            Ал–ли – лу     –        –       –      иа.""^– li  – tye     Ye     –     vo                          v vuish   –   nikh,                            Al – li  – lu       –        –       –       ia." DE!<(! F2 EF!<)! | %29
 (!tenuto!E2!>(! C2 DE)!>)! | !tenuto!D4 (G2- |!>(! GEFG)!pp! [EA][DA]!>)! | [DA]6 | [DA]6- | %34
 [DA]2"^Ал–ли –лу–иа.   Ал–ли – лу –иа.  Ал –ли  – лу    –    иа.         Ал –ли  – лу –  иа.    Ал – ли  – лу  – иа.""^Al – li   –lu – ia.    Al – li    – lu  – ia.   Al –  li   –  lu     –     ia.          Al –  li    – lu   –  ia.     Al   – li    –  lu   –  ia."!<(! [DA][DA] [DA][DA]!<)! | %35
!f! [CF][CF] [CF][CF] [CF][CF] |!mf! !tenuto![CF]2 [CF]2 [CF][CF] | [CF][CF] [CF][CF] [CF][CF] | %38
!mp!"^Ал –ли–лу   –  иа.        Ал–ли–лу        –       иа.                 Ал–ли–лу   –    иа.   Ал – ли–лу""^Al  – li  – lu   –    ia.        Al – li  – lu        –         ia.                  Al – li – lu    –     ia.    Al  –  li  – lu" [CF][CF] [CF]2 [CF]2 | %39
 FF F4- | F2!p! F4 | FF F4- | F2 F2 FF | %43
!pp!"^–иа.      Ал     –     ли–лу –""^– ia.       Al        –     li – lu  –" F4 F2- | F2 F2 F2 | %45
 F6 | !fermata!F6 |] %47
V:4
 x2 | x6 | x6 | x6 | x6 | x6 | x6 | x6 | x6 | x6 | x6 | x6 | x6 | x6 | x6 | x6 | x6 | F2 F2 C2 | %18
 F2 F2 C2 | F2 F2 C2 | F4 C2 | x6 | x6 | x6 | x6 | x6 | x6 | x6 | x6 | x6 | x6 | x6 | x6 | x6 | %34
 x6 | x6 | x6 | x6 | x6 | x6 | x6 | x6 | x6 | (C2 A,2) (C2 | A,2) C2 A,2 | C4- CF | x6 |] %47
V:5
 z2 | z6 | z6 | z6 | z6 | z6 | z6 | z6 | %8
 z2 z2!mf!"^Хва    –   ли               –               те                Го            –          спо –да  с не  –  бес,                                   Хва  –""^Khva  –    li                –               tye              Go            –           spo –da  s  ne  –  bes,                                  Khva –" c2 | %9
 (!>!c3 B) BA | !>!c3 B BA | (!>!c3 B) BA | %12
"^–ли             –             те,   Хва  –  ли  –   те          Е      –     го     в выш – них,       Го     –   спо–да    в выш      –      них,""^– li               –            tye,  Khva –   li   –  tye        Ye     –     vo     v vuish– nikh,     Go     –   spo–da     v vuish    –      nikh," (!>!c3 B) BA | %13
!f! !>![Ac][GB] [FA][GB] [GB][Ac] | !>![Ac][GB] [FA][GB] [GB][Ac] |!<(! !>![Ac]3 B !tenuto!BA!<)! | %16
 ((!>![Ac]3!<(! B)) BA!<)! | %17
!ff!"^в выш        –      них,""^v vuish       –      nikh,""^Го  –   спо –  да           в выш–них,     Хва      –     ли   –  те         Е        –       го,""^Go  –   spo  –  da          v vuish–nikh,  Khva     –      li     –  tye      Ye        –       vo," !>!c4 c2 | %18
"^в выш        –      них,""^v vuish       –      nikh," !>!c4 c2 | %19
!mf!"^в выш                 –                них,""^v vuish                –                nikh," c6 | %20
!>(! c6!>)! | z6 | %22
 z2 z2!p!"^Хва  – ли – те       Е    –    го                  Ал–ли –лу  –  иа.    Ал–ли – лу  –  иа.    Ал–ли – лу  –  иа.    Ал –""^Khva – li –  tye      Ye   –   vo                  Al – li –  lu   –   ia.     Al – li  –   lu   –  ia.       Al – li –  lu   –   ia.     Al  –" c2 | %23
 de f2 f2 | (!tenuto!f2 ed)!pp! [Ae][Ae] | !tenuto![Gd]2 [Gd]2 [Gd][Dd] | %26
 !tenuto![Gd]2 [Gd]2 [Gd][Dd] | !tenuto![Gd]4 [Gd]2 | z6 | %29
 z2 z2!p!"^Хва –  ли – те     Е   –    го,                 Ал–ли – лу  –  иа.    Ал–ли– лу  –  иа.   Ал–ли–""^Khva–  li   – tye  Ye   –   vo,                  Al – li  – lu    –   ia.     Al – li  – lu   –   ia.    Al – li  –" A2 | %30
 Bc d2 d2 | d4!pp! [Ae][df] | !tenuto![df][Ae] [Ae][df] [df][eg] | %33
 !tenuto![df][Ae] [Ae][df] [df][eg] | %34
"^–лу    –    иа.         Ал–ли  – лу    –        –       –    иа.             Ал         –       –      ли    –       лу       –        –       –         иа.""^–lu      –     ia.          Al – li    – lu     –        –       –     ia.              Al          –       –       li      –        lu       –        –       –          ia." !tenuto![df][Ae] [Ae][df]!<(! [df][df]!<)! | %35
!f! (!tenuto!c3 B) BA |!mf! (!tenuto!c3 B) BA | !tenuto![Ac][GB][FA][GB] [GB][Ac] | %38
!mp!"^Ал          –            ли    –   лу      –        иа.           Ал  – ли   –  лу       –      иа.            Ал  – ли     –    лу    –   иа.          Ал –ли –""^Al            –             li     –    lu       –         ia.            Al   –  li    –   lu        –       ia.             Al  –   li       –     lu     –   ia.            Al –  li   –" !tenuto![Ac][GB][FA][GB] [GB][Ac] | %39
 (c2 d2) (c2 | d2)!p! c2 d2 | (c2 d2) (c2 | d2) c2 d2 |!pp! (c2!>(! d2) (c2!>)! | d2) c2 d2 | %45
"^– лу           –             иа.""^–  lu            –              ia." (c4 c)A | !fermata!c6 |] %47
V:6
 x2 | x6 | x6 | x6 | x6 | x6 | x6 | x6 | x6 | x6 | x6 | x6 | x6 | x6 | x6 | x6 | x6 | BA AG G!f!F | %18
 BA AG GF | BA AG G!mp!F | (c2 B2!p! A2) | x6 | x6 | x6 | x6 | x6 | x6 | x6 | x6 | x6 | x6 | x6 | %32
 x6 | x6 | x6 | x6 | x6 | x6 | x6 | A4 A2- | A2 A2 B2 | A4 A2- | A2 A2 B2 | A4 A2- | A2 A2 A2 | %45
 A6 | A6 |] %47
V:7
 z2 | z6 | z6 | z6 | z6 | z6 | z6 | z6 | z6 | z6 | z6 | z6 | %12
 z2 z2!f!"^Хва     –        ли         –           те             Го         –         спо    –    да                с не    –    бес,               Хва  –""^Khva    –        li            –         tye            Go          –        spo    –     da                s ne    –    bes,              Khva –" C,2 | %13
 (!tenuto!C,2 D,2) C,2 | (!tenuto!C,2 D,2) C,2 |!<(! (!tenuto!C,2 D,2) C,2!<)! | %16
 (!tenuto!C,2!<(! D,2) C,2!<)! | %17
!ff!"^– ли        –          те             Го           –           спо    –    да                       с не    –     бес,""^–   li          –        tye             Go          –           spo    –     da                       s ne     –     bes," (!>!C,3 B,,) B,,A,, | %18
!f! (!>!C,3 B,,) B,,A,, |!mf! (!>!C,3 B,,) B,,!mp!A,, | %20
!>(! C,4!p!"^Хва   –   ли           –        те   Е  –""^Khva –    li             –       tye  Ye –" A,2!>)! | %21
 (D3 C) B,A, | %22
"^– го                        в выш    –      них,""^– vo                        v vuish   –     nikh," (C3 B, A,G,) | %23
!>(! B,4 (A,G,!>)! | %24
 F,G,)!pp!"^Ал  –  ли     –   лу       –         –        –    иа.""^Al   –   li       –   lu        –         –        –     ia." A,2 A,2 | %25
 [G,D]6 | [G,D]6- | [G,D]4!p!"^Хва  –""^Khva –" G,A, | %28
"^–ли      –      те   Е –  го                          в выш     –   них,""^– li        –     tye  Ye – vo                         v vuish    –   nikh," (B,3 A,) G,F, | %29
 (A,3 G, F,E,) | G,4 (F,E, | %31
 F,G,) A,2!pp!"^Ал–ли – лу  –  иа.    Ал–ли– лу  –  иа.   Ал–ли–""^Al – li  – lu    –   ia.     Al – li  – lu   –   ia.    Al – li  –" [A,,A,][A,,A,] | %32
 !tenuto![D,A,]2 [D,A,]2 [D,A,][A,,A,] | !tenuto![D,A,]2 [D,A,]2 [D,A,][A,,A,] | %34
 !tenuto![D,A,]2 A,2!<(! D,D,!<)! |!f! (!tenuto!C,2 D,2) C,2 |!mf! (!tenuto!C,2 D,2) C,2 | %37
 (!tenuto!C,2 D,2) C,2 |!mp! (!tenuto!C,2 D,2) C,2 | (C,2 D,2) (C,2 | D,2)!p! C,2 D,2 | %41
 (C,2 D,2) C,2 | D,2 C,2 D,2 |!pp! (C,2!>(! D,2) (C,2!>)! | D,2) C,2 D,2 | C,6 | !fermata!C,6 |] %47
V:8
 x2 | x6 | x6 | x6 | x6 | x6 | x6 | x6 | x6 | x6 | x6 | x6 | x2 x2 F,,2 | F,,4 F,,2 | F,,4 F,,2 | %15
 F,,4 F,,2 | F,,4 F,,2 | [F,,F,]4 [F,,C,]2 | [F,,F,]4 [F,,C,]2 | [F,,F,]4 [F,,C,]2 | [F,,F,]6 | %21
 z6 | z6 | z6 | z2 x4 | x6 | x6 | x4 z2 | z6 | z6 | z6 | z2 z2 x2 | x6 | x6 | x2 C,B,, A,,G,, | %35
 F,,4 F,,2 | F,,4 F,,2 | F,,4 F,,2 | F,,4 F,,2 | F,,4 F,,2- | F,,2 F,,2 F,,2 | F,,4 F,,2- | %42
 F,,2 F,,2 F,,2 | F,,4 F,,2- | F,,2 F,,2 F,,2 | F,,6 | F,,6 |] %47

